icons/AlertTriangle.svg

<svg width="24" height="24" viewBox="0 0 24 24" fill="none" xmlns="http://www.w3.org/2000/svg">
<path fill-rule="evenodd" clip-rule="evenodd" d="M2.95116,17.3592c-0.49776,0.8332 0.10254,1.8911 1.07309,1.8911h15.95095c0.9706,0 1.5709,-1.0579 1.0731,-1.8911l-7.9755,-13.35027c-0.485,-0.81191 -1.6611,-0.81191 -2.1462,0zM22.336,16.5899c1.0951,1.833 -0.2256,4.1604 -2.3608,4.1604h-15.95095c-2.13521,0 -3.45586,-2.3274 -2.36081,-4.1604l7.97549,-13.35025c1.06707,-1.7862 3.65457,-1.7862 4.72157,0zM12,7.50001c0.4142,0 0.75,0.33578 0.75,0.75v3.99999c0,0.4142 -0.3358,0.75 -0.75,0.75c-0.4142,0 -0.75,-0.3358 -0.75,-0.75v-3.99999c0,-0.41422 0.3358,-0.75 0.75,-0.75zM13.125,15.375c0,0.6213 -0.5037,1.125 -1.125,1.125c-0.6213,0 -1.125,-0.5037 -1.125,-1.125c0,-0.6213 0.5037,-1.125 1.125,-1.125c0.6213,0 1.125,0.5037 1.125,1.125z" fill="#002B51"/>
</svg>

<svg width="24" height="24" viewBox="0 0 24 24" fill="none" xmlns="http://www.w3.org/2000/svg">
<path fill-rule="evenodd" clip-rule="evenodd" d="M10.9266 4.00893C11.4117 3.19702 12.5878 3.19702 13.0728 4.00893L21.0483 17.3592C21.5461 18.1924 20.9458 19.2503 19.9752 19.2503H4.02425C3.0537 19.2503 2.4534 18.1924 2.95116 17.3592L10.9266 4.00893ZM14.3605 3.23965C13.2935 1.45345 10.706 1.45345 9.63893 3.23965L1.66344 16.5899C0.56839 18.4229 1.88904 20.7503 4.02425 20.7503H19.9752C22.1104 20.7503 23.4311 18.4229 22.336 16.5899L14.3605 3.23965ZM12 7.50001C12.4142 7.50001 12.75 7.83579 12.75 8.25001V12.25C12.75 12.6642 12.4142 13 12 13C11.5858 13 11.25 12.6642 11.25 12.25V8.25001C11.25 7.83579 11.5858 7.50001 12 7.50001ZM13.125 15.375C13.125 15.9963 12.6213 16.5 12 16.5C11.3787 16.5 10.875 15.9963 10.875 15.375C10.875 14.7537 11.3787 14.25 12 14.25C12.6213 14.25 13.125 14.7537 13.125 15.375Z" fill="#002B51"/>
</svg>
